build/category/TypographySolid.svg

<svg xmlns="http://www.w3.org/2000/svg" fill="none" viewBox="0 0 24 24" focusable="false"><path d="M0 0H24V24H0z"/><path fill="#74767B" fill-rule="evenodd" d="M4.30452 19.0801C4.15463 19.5331 4.49195 20 4.96909 20L8.15196 20C8.46569 20 8.7411 19.7913 8.8259 19.4892L9.4681 17.2018C9.50444 17.0723 9.62247 16.9829 9.75693 16.9829L13.9862 16.9829C14.1199 16.9829 14.2374 17.0713 14.2745 17.1997L14.9365 19.4941C15.023 19.7937 15.2972 20 15.6091 20L19.0312 20C19.5083 20 19.8457 19.5331 19.6958 19.0801L14.8649 4.48011C14.7701 4.19352 14.5022 4 14.2003 4L9.79997 4C9.4981 4 9.23023 4.19352 9.1354 4.48011L4.30452 19.0801ZM11.5942 9.82574C11.6774 9.53626 12.0876 9.53626 12.1708 9.82574L13.2312 13.5143C13.2864 13.706 13.1424 13.8971 12.9429 13.8971L10.8221 13.8971C10.6226 13.8971 10.4786 13.706 10.5338 13.5143L11.5942 9.82574Z"/></svg>

<svg xmlns="http://www.w3.org/2000/svg" fill="none" viewBox="0 0 24 24" focusable="false"><path fill="#74767B" fill-rule="evenodd" d="M4.3 19.08c-.15.45.19.92.66.92h3.19c.31 0 .59-.21.67-.52l.64-2.28a.31.31 0 0 1 .29-.22h4.23c.14 0 .25.09.29.21l.66 2.3c.09.3.36.51.67.51h3.43c.47 0 .81-.47.66-.92l-4.83-14.6A.69.69 0 0 0 14.2 4H9.79c-.3 0-.56.19-.66.48zm7.29-9.26c.08-.29.49-.29.58 0l1.06 3.69c.05.19-.09.38-.29.38h-2.12c-.2 0-.35-.19-.29-.38z"/></svg>
